assets/images/vector/icons/camera_icon.svg

<svg fill="none" height="53" viewBox="0 0 59 53" width="59" xmlns="http://www.w3.org/2000/svg"><path d="m32.5007 39.1668c5.0626 0 9.1666-4.104 9.1666-9.1666s-4.104-9.1667-9.1666-9.1667c-5.0627 0-9.1667 4.1041-9.1667 9.1667s4.104 9.1666 9.1667 9.1666z" stroke="#111" stroke-linecap="round" stroke-linejoin="round" stroke-width="10"/><path d="m46.6667 12.5h-35c-3.68193 0-6.6667 2.9848-6.6667 6.6667v21.6666c0 3.6819 2.98477 6.6667 6.6667 6.6667h35c3.6819 0 6.6666-2.9848 6.6666-6.6667v-21.6666c0-3.6819-2.9847-6.6667-6.6666-6.6667z" stroke="#111" stroke-linecap="round" stroke-linejoin="round" stroke-width="10"/><path d="m13.334 23.3335c1.3807 0 2.5-1.1193 2.5-2.5s-1.1193-2.5-2.5-2.5-2.5 1.1193-2.5 2.5 1.1193 2.5 2.5 2.5z" fill="#111"/><path d="m13.334 4.16675h8.3333" stroke="#111" stroke-linecap="round" stroke-linejoin="round" stroke-width="10"/></svg>

<svg width="59" height="53" viewBox="0 0 59 53" fill="none" xmlns="http://www.w3.org/2000/svg">
<path d="M32.5007 39.1668C37.5633 39.1668 41.6673 35.0628 41.6673 30.0002C41.6673 24.9376 37.5633 20.8335 32.5007 20.8335C27.438 20.8335 23.334 24.9376 23.334 30.0002C23.334 35.0628 27.438 39.1668 32.5007 39.1668Z" stroke="#111111" stroke-width="10" stroke-linecap="round" stroke-linejoin="round"/>
<path d="M46.6667 12.5H11.6667C7.98477 12.5 5 15.4848 5 19.1667V40.8333C5 44.5152 7.98477 47.5 11.6667 47.5H46.6667C50.3486 47.5 53.3333 44.5152 53.3333 40.8333V19.1667C53.3333 15.4848 50.3486 12.5 46.6667 12.5Z" stroke="#111111" stroke-width="10" stroke-linecap="round" stroke-linejoin="round"/>
<path d="M13.334 23.3335C14.7147 23.3335 15.834 22.2142 15.834 20.8335C15.834 19.4528 14.7147 18.3335 13.334 18.3335C11.9533 18.3335 10.834 19.4528 10.834 20.8335C10.834 22.2142 11.9533 23.3335 13.334 23.3335Z" fill="#111111"/>
<path d="M13.334 4.16675H21.6673" stroke="#111111" stroke-width="10" stroke-linecap="round" stroke-linejoin="round"/>
</svg>
